src/symbolic/actions/xapp-text-case-symbolic.svg

<svg xmlns="http://www.w3.org/2000/svg" width="16" height="16" version="1.1">
 <path style="fill:#444444" d="M 4.7890625,2 1,13 h 1.90625 l 0.6796875,-2 h 3.8300781 l 0.6875,2 H 10 L 6.2109375,2 Z M 5.4980469,5.4375 6.6835938,9 H 4.3144531 Z M 11.5,8 v 1 h 3 C 14.715,9 15,9.305 15,9.5 V 10 h -2.5 c -0.46,0 -0.87,0.189375 -1.125,0.484375 C 11.12,10.774375 11,11.14 11,11.5 c 0,0.36 0.135625,0.725625 0.390625,1.015625 C 11.645625,12.805625 12.045,13 12.5,13 H 16 V 9.5 C 16,8.685 15.34,8 14.5,8 Z m 1,3 H 15 v 1 H 12.5 C 12.3,12 12.215625,11.944375 12.140625,11.859375 12.065625,11.774375 12,11.64 12,11.5 12,11.36 12.05,11.225625 12.125,11.140625 12.2,11.060625 12.29,11 12.5,11 Z"/>
</svg>

<svg xmlns="http://www.w3.org/2000/svg" width="16" height="16"><path d="M4.79 2L1 13h1.906l.68-2h3.83l.688 2H10L6.21 2zm.708 3.438L6.684 9h-2.37zM11.5 8v1h3c.215 0 .5.305.5.5v.5h-2.5c-.46 0-.87.19-1.125.484-.255.29-.375.656-.375 1.016s.136.726.39 1.016c.256.29.655.484 1.11.484H16V9.5c0-.815-.66-1.5-1.5-1.5zm1 3H15v1h-2.5c-.2 0-.284-.056-.36-.14a.568.568 0 0 1-.14-.36c0-.14.05-.274.125-.36.075-.08.165-.14.375-.14z" fill="#5d656b"/></svg>
